X:15811
T:Spel-Borgens polska
R:senpolska
A:Medelpad (Sweden)
M:3/4
L:1/16
Q:1/4=110
K:Dm
A3d A2G2 G2F2|F2E2 (ED)EF D4|A2=B^c d2e2 f2gf|e2fe d2ed ^c2A2|\
A3d A2G2 G2F2|F2E2 (ED)EF D4|A2=B^c d2e2 f2gf|e2d^c d8::\
A4 f4 f2a2|a2gf e4 g2eg|f2ef d2e2 f2gf|e3^c c2A2 A2=Bc|\
d3F E2D2 ^C3D|E2FG A2BA G2AB|\
A4 f4 f2a2|a2gf e4 g2eg|f2ef d2e2 f2gf|e3^c c2A2 A2=Bc|\
d3F E2D2 ^C3D|E2FE D8:|
T:Andrastmma
F3A F2E2 E2D2|D2^C2 C=B,CD A,4|A,2DE F2G2 A4|G4 F4 E2^C2|\
F3A F2E2 E2D2|D2^C2 C=B,CD A,4|A,2DE F2G2 A4|G2FE [F8A8]::\
D4 d4 d2f2|f2ed ^c4 e2ce|d2^cd A2c2 d2ed|^c3A A2E2 E2DE|\
F3D ^C2D2 E2F2|^C2DE F2GF E2FG|F4 {^g}a4 a2f2|f2ed ^c4 e2ce|\
d2^cd A2c2 d2ed|^c3A A2E2 E2DE|F2D2 ^C2D2 E3F|A2=B^c d8:|
